src/pos-icons/file-phone-outline.svg

<svg height="24" viewBox="0 0 24 24" width="24" xmlns="http://www.w3.org/2000/svg"><path d="m14 2h-8c-1.11 0-2 .9-2 2v16c0 1.11.89 2 2 2h12c1.11 0 2-.89 2-2v-12zm4 18h-12v-16h7v5h5zm-9-6.67c.81 1.57 2.1 2.86 3.67 3.67l1.22-1.23c.16-.16.38-.2.57-.14.62.2 1.29.32 1.98.32.31 0 .56.24.56.55v1.95c0 .3-.25.55-.56.55-5.21 0-9.44-4.23-9.44-9.44 0-.31.25-.56.56-.56h1.94c.31 0 .56.25.56.56 0 .69.11 1.36.31 1.98.06.19.02.41-.14.57z"/></svg>

<?xml version="1.0" encoding="UTF-8"?><!DOCTYPE svg PUBLIC "-//W3C//DTD SVG 1.1//EN" "http://www.w3.org/Graphics/SVG/1.1/DTD/svg11.dtd"><svg xmlns="http://www.w3.org/2000/svg" xmlns:xlink="http://www.w3.org/1999/xlink" version="1.1" id="mdi-file-phone-outline" width="24" height="24" viewBox="0 0 24 24"><path d="M14 2H6C4.89 2 4 2.9 4 4V20C4 21.11 4.89 22 6 22H18C19.11 22 20 21.11 20 20V8L14 2M18 20H6V4H13V9H18V20M9 13.33C9.81 14.9 11.1 16.19 12.67 17L13.89 15.77C14.05 15.61 14.27 15.57 14.46 15.63C15.08 15.83 15.75 15.95 16.44 15.95C16.75 15.95 17 16.19 17 16.5V18.45C17 18.75 16.75 19 16.44 19C11.23 19 7 14.77 7 9.56C7 9.25 7.25 9 7.56 9H9.5C9.81 9 10.06 9.25 10.06 9.56C10.06 10.25 10.17 10.92 10.37 11.54C10.43 11.73 10.39 11.95 10.23 12.11L9 13.33Z" /></svg>
